svgs/light/bridge-lock.svg

<svg xmlns="http://www.w3.org/2000/svg" viewBox="0 0 640 512"><!--! Font Awesome Pro 6.4.2 by @fontawesome - https://fontawesome.com License - https://fontawesome.com/license (Commercial License) Copyright 2023 Fonticons, Inc. --><path d="M48 32h80H256 384 512h80c8.8 0 16 7.2 16 16s-7.2 16-16 16H528v64h64c8.8 0 16 7.2 16 16s-7.2 16-16 16H528 512 384 256 128 48c-8.8 0-16-7.2-16-16s7.2-16 16-16h64V64H48c-8.8 0-16-7.2-16-16s7.2-16 16-16zM320 240c40.6 0 75.4 25.3 89.4 60.9C394 312.6 384 331.2 384 352V336c0-35.3-28.7-64-64-64s-64 28.7-64 64v96c0 26.5-21.5 48-48 48H176c-26.5 0-48-21.5-48-48V336c0-35.3-28.7-64-64-64H48c-8.8 0-16-7.2-16-16s7.2-16 16-16H64c53 0 96 43 96 96v96c0 8.8 7.2 16 16 16h32c8.8 0 16-7.2 16-16V336c0-53 43-96 96-96zM496 64H400v64h96V64zM368 64H272v64h96V64zM240 64H144v64h96V64zM528 224c-26.5 0-48 21.5-48 48v48h96V272c0-26.5-21.5-48-48-48zm-80 48c0-44.2 35.8-80 80-80s80 35.8 80 80v48c17.7 0 32 14.3 32 32V480c0 17.7-14.3 32-32 32H448c-17.7 0-32-14.3-32-32V352c0-17.7 14.3-32 32-32V272zm0 80V480H608V352H448z"/></svg>

<svg xmlns="http://www.w3.org/2000/svg" viewBox="0 0 640 512"><!--! Font Awesome Pro 6.1.1 by @fontawesome - https://fontawesome.com License - https://fontawesome.com/license (Commercial License) Copyright 2022 Fonticons, Inc. --><path d="M592 32C600.8 32 608 39.16 608 48C608 56.84 600.8 64 592 64H528V128H592C600.8 128 608 135.2 608 144C608 152.8 600.8 160 592 160H48C39.16 160 32 152.8 32 144C32 135.2 39.16 128 48 128H112V64H48C39.16 64 32 56.84 32 48C32 39.16 39.16 32 48 32H592zM496 64H400V128H496V64zM272 64V128H368V64H272zM240 64H144V128H240V64zM320 240C360.6 240 395.4 265.3 409.4 300.9C393.1 312.6 384 331.2 384 352V336C384 300.7 355.3 272 320 272C284.7 272 256 300.7 256 336V432C256 458.5 234.5 480 208 480H176C149.5 480 128 458.5 128 432V336C128 300.7 99.35 272 64 272H48C39.16 272 32 264.8 32 256C32 247.2 39.16 240 48 240H64C117 240 160 282.1 160 336V432C160 440.8 167.2 448 176 448H208C216.8 448 224 440.8 224 432V336C224 282.1 266.1 240 320 240zM528 192C572.2 192 608 227.8 608 272V320C625.7 320 640 334.3 640 352V480C640 497.7 625.7 512 608 512H448C430.3 512 416 497.7 416 480V352C416 334.3 430.3 320 448 320V272C448 227.8 483.8 192 528 192zM528 224C501.5 224 480 245.5 480 272V320H576V272C576 245.5 554.5 224 528 224zM448 352V480H608V352H448z"/></svg>
